svg/justvector/readernaut.svg

<svg xmlns="http://www.w3.org/2000/svg" viewBox="0 0 100 100" enable-background="new 0 0 100 100"><path d="m8.252 41.27c2.101-7.128 7.765-8.445 8.771-8.625 5.569-13.11 18.713-22.328 34.04-22.328 15.359 0 28.525 9.251 34.07 22.402.16.039.34.084.561.15v-17.628c-1.969-.795-3.357-2.699-3.357-4.924 0-2.937 2.418-5.319 5.402-5.319 2.982 0 5.398 2.383 5.398 5.319 0 2.518-1.775 4.621-4.16 5.174v19.02c1.742 1.264 3.57 3.344 4.576 6.758 0 0 1.811 8.746-1.154 10.953 0 0-1.449 2.039-5.65 3.611-.326 1.229-.709 2.436-1.156 3.609-1.555.244-3.246.543-5.02.909 2.578-4.476 4.047-9.595 4.047-15.04 0-17.509-15.17-31.702-33.885-31.702-18.711 0-33.881 14.193-33.881 31.702 0 5.591 1.549 10.839 4.264 15.399-1.541-.344-3.02-.636-4.43-.889-.498-1.253-.914-2.545-1.271-3.861-.023-.008-.039-.012-.061-.02-4.443-1.586-5.955-3.725-5.955-3.725-2.964-2.204-1.153-10.951-1.153-10.951m41.748 39.08c-12.98-15.635-45-17.05-45-17.05v11.934c28.99.135 45 19.759 45 19.759v-.002c0 0 16.01-19.623 45-19.758v-11.935c0 0-32.02 1.414-45 17.05m30.619-29.534c0 3.734-.709 7.303-1.992 10.594-9.889 2.232-21.848 6.515-28.627 14.678v.0001c-6.496-7.827-17.768-12.09-27.404-14.396-1.348-3.368-2.102-7.03-2.102-10.876 0-16.354 13.461-29.611 30.06-29.611 16.603-.0001 30.06 13.257 30.06 29.61m-44.25-4.69c0-1.835-1.51-3.321-3.371-3.321-1.863 0-3.373 1.486-3.373 3.321s1.509 3.321 3.373 3.321c1.861 0 3.371-1.486 3.371-3.321m8.01-8.398c0-2.825-2.327-5.115-5.196-5.115-2.867 0-5.191 2.29-5.191 5.115 0 2.824 2.324 5.115 5.191 5.115 2.87.0001 5.196-2.29 5.196-5.115"/></svg>

<?xml version="1.0" encoding="iso-8859-1"?>
<!-- Generator: Adobe Illustrator 15.0.0, SVG Export Plug-In . SVG Version: 6.00 Build 0)  -->
<!DOCTYPE svg PUBLIC "-//W3C//DTD SVG 1.1//EN" "http://www.w3.org/Graphics/SVG/1.1/DTD/svg11.dtd">
<svg version="1.1" id="Layer_1" xmlns="http://www.w3.org/2000/svg" xmlns:xlink="http://www.w3.org/1999/xlink" x="0px" y="0px"
	 width="100px" height="100px" viewBox="0 0 100 100" style="enable-background:new 0 0 100 100;" xml:space="preserve">
<path id="Readernaut" d="M8.252,41.273c2.101-7.128,7.765-8.445,8.771-8.625C22.592,19.535,35.736,10.32,51.066,10.32
	c15.359,0,28.525,9.251,34.072,22.402c0.16,0.039,0.34,0.084,0.561,0.15V15.244c-1.969-0.795-3.357-2.699-3.357-4.924
	c0-2.937,2.418-5.319,5.402-5.319c2.982,0,5.398,2.383,5.398,5.319c0,2.518-1.775,4.621-4.16,5.174v19.021
	c1.742,1.264,3.57,3.344,4.576,6.758c0,0,1.811,8.746-1.154,10.953c0,0-1.449,2.039-5.65,3.611
	c-0.326,1.229-0.709,2.436-1.156,3.609c-1.555,0.244-3.246,0.543-5.021,0.909c2.578-4.476,4.047-9.595,4.047-15.035
	c0-17.509-15.17-31.702-33.885-31.702c-18.711,0-33.881,14.193-33.881,31.702c0,5.591,1.549,10.839,4.264,15.399
	c-1.541-0.344-3.021-0.636-4.43-0.889c-0.498-1.253-0.914-2.545-1.271-3.861c-0.023-0.008-0.039-0.012-0.061-0.02
	c-4.443-1.586-5.955-3.725-5.955-3.725C6.441,50.02,8.252,41.273,8.252,41.273z M50,80.356C37.02,64.721,5,63.309,5,63.309v11.934
	c28.99,0.135,45,19.759,45,19.759V95c0,0,16.01-19.623,45-19.758V63.307C95,63.307,62.982,64.721,50,80.356z M80.619,50.822
	c0,3.734-0.709,7.303-1.992,10.594C68.738,63.648,56.779,67.931,50,76.094v0.001c-6.496-7.827-17.768-12.09-27.404-14.396
	c-1.348-3.368-2.102-7.034-2.102-10.876c0-16.354,13.461-29.611,30.063-29.611C67.16,21.211,80.619,34.469,80.619,50.822z
	 M36.371,46.132c0-1.835-1.51-3.321-3.371-3.321c-1.863,0-3.373,1.486-3.373,3.321s1.509,3.321,3.373,3.321
	C34.861,49.453,36.371,47.967,36.371,46.132z M44.377,37.734c0-2.825-2.327-5.115-5.196-5.115c-2.867,0-5.191,2.29-5.191,5.115
	c0,2.824,2.324,5.115,5.191,5.115C42.051,42.85,44.377,40.559,44.377,37.734z"/>
</svg>
